; G-Code generated by Simplify3D(R) Version 4.1.2
; Nov 15, 2022 at 11:47:53 AM
; Settings Summary
;   processName,Process1
;   applyToModels,Piso V1 final
;   profileName,PETG (modified)
;   profileVersion,2022-03-31 23:08:57
;   baseProfile,Default (modified)
;   printMaterial,PLA
;   printQuality,High
;   printExtruders,
;   extruderName,Primary Extruder
;   extruderToolheadNumber,0
;   extruderDiameter,0.4
;   extruderAutoWidth,1
;   extruderWidth,0.48
;   extrusionMultiplier,0.95
;   extruderUseRetract,1
;   extruderRetractionDistance,6.6
;   extruderExtraRestartDistance,0
;   extruderRetractionZLift,0
;   extruderRetractionSpeed,2700
;   extruderUseCoasting,0
;   extruderCoastingDistance,0.2
;   extruderUseWipe,0
;   extruderWipeDistance,5
;   primaryExtruder,0
;   layerHeight,0.29
;   topSolidLayers,4
;   bottomSolidLayers,4
;   perimeterOutlines,4
;   printPerimetersInsideOut,0
;   startPointOption,2
;   startPointOriginX,0
;   startPointOriginY,0
;   sequentialIslands,0
;   spiralVaseMode,0
;   firstLayerHeightPercentage,100
;   firstLayerWidthPercentage,100
;   firstLayerUnderspeed,0.2
;   useRaft,0
;   raftExtruder,0
;   raftTopLayers,3
;   raftBaseLayers,2
;   raftOffset,3
;   raftSeparationDistance,0.14
;   raftTopInfill,100
;   aboveRaftSpeedMultiplier,0.3
;   useSkirt,1
;   skirtExtruder,0
;   skirtLayers,2
;   skirtOutlines,2
;   skirtOffset,1
;   usePrimePillar,0
;   primePillarExtruder,999
;   primePillarWidth,12
;   primePillarLocation,7
;   primePillarSpeedMultiplier,1
;   useOozeShield,0
;   oozeShieldExtruder,999
;   oozeShieldOffset,2
;   oozeShieldOutlines,1
;   oozeShieldSidewallShape,1
;   oozeShieldSidewallAngle,30
;   oozeShieldSpeedMultiplier,1
;   infillExtruder,0
;   internalInfillPattern,Rectilinear
;   externalInfillPattern,Rectilinear
;   infillPercentage,30
;   outlineOverlapPercentage,70
;   infillExtrusionWidthPercentage,150
;   minInfillLength,5
;   infillLayerInterval,1
;   internalInfillAngles,0,60,-60
;   overlapInternalInfillAngles,0
;   externalInfillAngles,45,-45
;   generateSupport,0
;   supportExtruder,0
;   supportInfillPercentage,30
;   supportExtraInflation,0
;   supportBaseLayers,2
;   denseSupportExtruder,0
;   denseSupportLayers,0
;   denseSupportInfillPercentage,70
;   supportLayerInterval,1
;   supportHorizontalPartOffset,0.3
;   supportUpperSeparationLayers,1
;   supportLowerSeparationLayers,1
;   supportType,0
;   supportGridSpacing,4
;   maxOverhangAngle,45
;   supportAngles,0
;   temperatureName,Primary Extruder,Cama
;   temperatureNumber,0,0
;   temperatureSetpointCount,1,1
;   temperatureSetpointLayers,1,1
;   temperatureSetpointTemperatures,230,70
;   temperatureStabilizeAtStartup,1,1
;   temperatureHeatedBed,0,1
;   fanLayers,1
;   fanSpeeds,100
;   blipFanToFullPower,0
;   adjustSpeedForCooling,1
;   minSpeedLayerTime,15
;   minCoolingSpeedSlowdown,40
;   increaseFanForCooling,0
;   minFanLayerTime,45
;   maxCoolingFanSpeed,100
;   increaseFanForBridging,0
;   bridgingFanSpeed,100
;   use5D,1
;   relativeEdistances,0
;   allowEaxisZeroing,1
;   independentExtruderAxes,0
;   includeM10123,0
;   stickySupport,1
;   applyToolheadOffsets,0
;   gcodeXoffset,0
;   gcodeYoffset,0
;   gcodeZoffset,0
;   overrideMachineDefinition,0
;   machineTypeOverride,0
;   strokeXoverride,200
;   strokeYoverride,200
;   strokeZoverride,200
;   originOffsetXoverride,0
;   originOffsetYoverride,0
;   originOffsetZoverride,0
;   homeXdirOverride,-1
;   homeYdirOverride,-1
;   homeZdirOverride,-1
;   flipXoverride,1
;   flipYoverride,-1
;   flipZoverride,1
;   toolheadOffsets,0,0|0,0|0,0|0,0|0,0|0,0
;   overrideFirmwareConfiguration,0
;   firmwareTypeOverride,RepRap (Marlin/Repetier/Sprinter)
;   GPXconfigOverride,r2
;   baudRateOverride,115200
;   overridePrinterModels,0
;   printerModelsOverride
;   startingGcode,G28 ; home all axes,M117 Imprimiendo;
;   layerChangeGcode,
;   retractionGcode,
;   toolChangeGcode,
;   endingGcode,M106 S0 ;Turn-off fan,M104 S0 ;Turn-off hotend,M140 S0 ;Turn-off bed,M84 X Y E ;Disable all steppers but Z,M82 ;absolute extrusion mode,M104 S0;
;   exportFileFormat,gcode
;   celebration,0
;   celebrationSong,Random Song
;   postProcessing,
;   defaultSpeed,2100
;   outlineUnderspeed,0.5
;   solidInfillUnderspeed,0.8
;   supportUnderspeed,0.8
;   rapidXYspeed,4200
;   rapidZspeed,1002
;   minBridgingArea,50
;   bridgingExtraInflation,0
;   bridgingExtrusionMultiplier,1
;   bridgingSpeedMultiplier,1
;   useFixedBridgingAngle,0
;   fixedBridgingAngle,0
;   applyBridgingToPerimeters,0
;   filamentDiameters,1.75|1.75|1.75|1.75|1.75|1.75
;   filamentPricesPerKg,200|46|46|46|46|46
;   filamentDensities,1.25|1.25|1.25|1.25|1.25|1.25
;   useMinPrintHeight,0
;   minPrintHeight,0
;   useMaxPrintHeight,0
;   maxPrintHeight,0
;   useDiaphragm,0
;   diaphragmLayerInterval,20
;   robustSlicing,1
;   mergeAllIntoSolid,0
;   onlyRetractWhenCrossingOutline,1
;   retractBetweenLayers,0
;   useRetractionMinTravel,1
;   retractionMinTravel,3
;   retractWhileWiping,0
;   onlyWipeOutlines,0
;   avoidCrossingOutline,0
;   maxMovementDetourFactor,3
;   toolChangeRetractionDistance,12
;   toolChangeExtraRestartDistance,-0.5
;   toolChangeRetractionSpeed,600
;   externalThinWallType,0
;   internalThinWallType,2
;   thinWallAllowedOverlapPercentage,10
;   singleExtrusionMinLength,1
;   singleExtrusionMinPrintingWidthPercentage,50
;   singleExtrusionMaxPrintingWidthPercentage,200
;   singleExtrusionEndpointExtension,0.2
;   horizontalSizeCompensation,0
G90
M82
M106 S255
M140 S70
M190 S70
M104 S230 T0
M109 S230 T0
G28 ; home all axes
M117 Imprimiendo;
; process Process1
; layer 1, Z = 0.290
T0
G92 E0.0000
G1 E-6.6000 F2700
; feature skirt
; tool H0.290 W0.480
G1 Z0.290 F1002
G1 X34.288 Y67.780 F4200
G1 E0.0000 F2700
G92 E0.0000
G1 X165.712 Y67.780 E7.2256 F420
G1 X166.720 Y68.788 E7.3039
G1 X166.720 Y131.212 E10.7360
G1 X165.712 Y132.220 E10.8143
G1 X34.288 Y132.220 E18.0400
G1 X33.280 Y131.212 E18.1183
G1 X33.280 Y68.788 E21.5504
G1 X34.288 Y67.780 E21.6287
G1 X34.486 Y68.260 F4200
G92 E0.0000
G1 X165.514 Y68.260 E7.2037 F420
G1 X166.240 Y68.986 E7.2602
G1 X166.240 Y131.014 E10.6704
G1 X165.514 Y131.740 E10.7269
G1 X34.486 Y131.740 E17.9306
G1 X33.760 Y131.014 E17.9871
G1 X33.760 Y68.986 E21.3973
G1 X34.486 Y68.260 E21.4538
; feature outer perimeter
G1 X35.240 Y69.740 F4200
G92 E0.0000
G1 X164.760 Y69.740 E7.1209 F210
G1 X164.760 Y130.260 E10.4482
G1 X35.240 Y130.260 E17.5691
G1 X35.240 Y69.740 E20.8964
; feature inner perimeter
G1 X35.720 Y70.220 F4200
G92 E0.0000
G1 X164.280 Y70.220 E7.0681 F315
G1 X164.280 Y129.780 E10.3427
G1 X35.720 Y129.780 E17.4108
G1 X35.720 Y70.220 E20.6853
G1 X36.200 Y70.700 F4200
G92 E0.0000
G1 X163.800 Y70.700 E7.0153 F315
G1 X163.800 Y129.300 E10.2371
G1 X36.200 Y129.300 E17.2524
G1 X36.200 Y70.700 E20.4742
G1 X36.680 Y71.180 F4200
G92 E0.0000
G1 X40.319 Y71.180 E0.2001 F315
G1 X40.399 Y71.511 E0.2188
G1 X40.132 Y71.647 E0.2353
G1 X39.147 Y72.632 E0.3118
G1 X38.514 Y73.873 E0.3884
G1 X38.296 Y75.250 E0.4651
G1 X38.514 Y76.627 E0.5417
G1 X39.147 Y77.868 E0.6183
G1 X40.132 Y78.853 E0.6949
G1 X41.374 Y79.486 E0.7715
G1 X42.750 Y79.703 E0.8481
G1 X44.126 Y79.486 E0.9247
G1 X45.368 Y78.852 E1.0014
G1 X46.047 Y78.174 E1.0541
G1 X46.353 Y77.868 E1.0779
G1 X46.986 Y76.626 E1.1546
G1 X47.203 Y75.250 E1.2312
G1 X46.986 Y73.874 E1.3077
G1 X46.353 Y72.632 E1.3844
G1 X45.368 Y71.647 E1.4610
G1 X45.101 Y71.511 E1.4774
G1 X45.181 Y71.180 E1.4961
G1 X154.819 Y71.180 E7.5239
G1 X154.899 Y71.511 E7.5427
G1 X154.632 Y71.647 E7.5591
G1 X153.647 Y72.632 E7.6357
G1 X153.014 Y73.874 E7.7123
G1 X152.797 Y75.250 E7.7889
G1 X153.014 Y76.626 E7.8655
G1 X153.647 Y77.868 E7.9421
G1 X154.632 Y78.853 E8.0187
G1 X155.874 Y79.486 E8.0954
G1 X157.250 Y79.703 E8.1720
G1 X158.626 Y79.486 E8.2486
G1 X159.868 Y78.853 E8.3252
G1 X160.853 Y77.868 E8.4018
G1 X161.486 Y76.627 E8.4784
G1 X161.704 Y75.250 E8.5550
G1 X161.486 Y73.873 E8.6317
G1 X160.853 Y72.632 E8.7082
G1 X159.868 Y71.647 E8.7848
G1 X159.601 Y71.511 E8.8013
G1 X159.681 Y71.180 E8.8200
G1 X163.320 Y71.180 E9.0201
G1 X163.320 Y128.820 E12.1891
G1 X159.681 Y128.820 E12.3891
G1 X159.601 Y128.489 E12.4079
G1 X159.868 Y128.353 E12.4243
G1 X160.853 Y127.368 E12.5009
G1 X161.486 Y126.127 E12.5775
G1 X161.704 Y124.750 E12.6541
G1 X161.486 Y123.373 E12.7308
G1 X160.853 Y122.132 E12.8074
G1 X159.868 Y121.147 E12.8840
G1 X158.626 Y120.514 E12.9606
G1 X157.250 Y120.297 E13.0372
G1 X155.874 Y120.514 E13.1138
G1 X154.632 Y121.147 E13.1904
G1 X153.864 Y121.915 E13.2501
G1 X153.647 Y122.132 E13.2670
G1 X153.014 Y123.374 E13.3436
G1 X152.797 Y124.750 E13.4202
G1 X153.014 Y126.126 E13.4968
G1 X153.647 Y127.368 E13.5734
G1 X154.632 Y128.353 E13.6500
G1 X154.899 Y128.489 E13.6665
G1 X154.819 Y128.820 E13.6852
G1 X45.181 Y128.820 E19.7130
G1 X45.101 Y128.489 E19.7317
G1 X45.368 Y128.353 E19.7482
G1 X46.353 Y127.368 E19.8248
G1 X46.986 Y126.126 E19.9014
G1 X47.203 Y124.750 E19.9780
G1 X46.986 Y123.374 E20.0546
G1 X46.353 Y122.132 E20.1312
G1 X45.368 Y121.147 E20.2078
G1 X44.126 Y120.514 E20.2844
G1 X42.750 Y120.297 E20.3610
G1 X41.374 Y120.514 E20.4376
G1 X40.132 Y121.147 E20.5143
G1 X39.147 Y122.132 E20.5908
G1 X38.514 Y123.373 E20.6674
G1 X38.296 Y124.750 E20.7441
G1 X38.514 Y126.127 E20.8207
G1 X39.147 Y127.368 E20.8973
G1 X40.132 Y128.353 E20.9739
G1 X40.399 Y128.489 E20.9903
G1 X40.319 Y128.820 E21.0091
G1 X36.680 Y128.820 E21.2091
G1 X36.680 Y71.180 E24.3781
; feature outer perimeter
G1 X40.326 Y73.489 F4200
G92 E0.0000
G1 X39.901 Y74.324 E0.0515 F210
G1 X39.754 Y75.250 E0.1031
G1 X39.901 Y76.176 E0.1546
G1 X40.326 Y77.011 E0.2061
G1 X40.989 Y77.674 E0.2577
G1 X41.824 Y78.099 E0.3092
G1 X42.750 Y78.245 E0.3607
G1 X43.676 Y78.099 E0.4123
G1 X44.511 Y77.674 E0.4638
G1 X45.117 Y77.067 E0.5109
G1 X45.174 Y77.011 E0.5153
G1 X45.599 Y76.176 E0.5668
G1 X45.745 Y75.250 E0.6184
G1 X45.599 Y74.324 E0.6699
G1 X45.174 Y73.489 E0.7214
G1 X44.511 Y72.826 E0.7729
G1 X43.676 Y72.401 E0.8245
G1 X42.750 Y72.254 E0.8760
G1 X41.824 Y72.401 E0.9276
G1 X40.989 Y72.826 E0.9791
G1 X40.326 Y73.489 E1.0306
; feature inner perimeter
G1 X39.933 Y73.203 F4200
G92 E0.0000
G1 X39.439 Y74.174 E0.0599 F315
G1 X39.268 Y75.250 E0.1198
G1 X39.439 Y76.326 E0.1797
G1 X39.933 Y77.297 E0.2396
G1 X40.703 Y78.067 E0.2995
G1 X41.674 Y78.561 E0.3593
G1 X42.750 Y78.731 E0.4192
G1 X43.826 Y78.561 E0.4791
G1 X44.797 Y78.067 E0.5390
G1 X45.457 Y77.407 E0.5903
G1 X45.567 Y77.297 E0.5989
G1 X46.061 Y76.326 E0.6588
G1 X46.231 Y75.250 E0.7187
G1 X46.061 Y74.174 E0.7786
G1 X45.567 Y73.203 E0.8385
G1 X44.797 Y72.433 E0.8983
G1 X43.826 Y71.939 E0.9582
G1 X42.750 Y71.768 E1.0181
G1 X41.674 Y71.939 E1.0780
G1 X40.703 Y72.433 E1.1379
G1 X39.933 Y73.203 E1.1978
G1 X39.540 Y72.918 F4200
G92 E0.0000
G1 X38.977 Y74.023 E0.0682 F315
G1 X38.782 Y75.250 E0.1365
G1 X38.977 Y76.477 E0.2048
G1 X39.540 Y77.582 E0.2730
G1 X40.418 Y78.460 E0.3413
G1 X41.524 Y79.024 E0.4095
G1 X42.750 Y79.217 E0.4778
G1 X43.976 Y79.024 E0.5460
G1 X45.082 Y78.460 E0.6143
G1 X45.960 Y77.582 E0.6825
G1 X46.524 Y76.476 E0.7507
G1 X46.717 Y75.250 E0.8190
G1 X46.524 Y74.024 E0.8872
G1 X45.960 Y72.918 E0.9555
G1 X45.082 Y72.040 E1.0237
G1 X43.977 Y71.477 E1.0919
G1 X42.750 Y71.282 E1.1602
G1 X41.523 Y71.477 E1.2285
G1 X40.418 Y72.040 E1.2967
G1 X39.540 Y72.918 E1.3650
; feature outer perimeter
G1 X42.750 Y121.755 F4200
G92 E0.0000
G1 X41.824 Y121.901 E0.0515 F210
G1 X40.989 Y122.326 E0.1031
G1 X40.326 Y122.989 E0.1546
G1 X39.901 Y123.824 E0.2061
G1 X39.754 Y124.750 E0.2577
G1 X39.901 Y125.676 E0.3092
G1 X40.326 Y126.511 E0.3607
G1 X40.989 Y127.174 E0.4122
G1 X41.824 Y127.599 E0.4638
G1 X42.750 Y127.746 E0.5153
G1 X43.676 Y127.599 E0.5669
G1 X44.511 Y127.174 E0.6184
G1 X45.174 Y126.511 E0.6699
G1 X45.599 Y125.676 E0.7214
G1 X45.745 Y124.750 E0.7730
G1 X45.599 Y123.824 E0.8245
G1 X45.174 Y122.989 E0.8760
G1 X44.511 Y122.326 E0.9275
G1 X43.676 Y121.901 E0.9791
G1 X42.750 Y121.755 E1.0306
; feature inner perimeter
G1 X42.750 Y121.269 F4200
G92 E0.0000
G1 X41.674 Y121.439 E0.0599 F315
G1 X40.703 Y121.933 E0.1198
G1 X39.933 Y122.703 E0.1797
G1 X39.439 Y123.674 E0.2395
G1 X39.268 Y124.750 E0.2994
G1 X39.439 Y125.826 E0.3594
G1 X39.933 Y126.797 E0.4192
G1 X40.703 Y127.567 E0.4791
G1 X41.674 Y128.061 E0.5390
G1 X42.750 Y128.232 E0.5989
G1 X43.826 Y128.061 E0.6588
G1 X44.797 Y127.567 E0.7187
G1 X45.567 Y126.797 E0.7786
G1 X46.061 Y125.826 E0.8385
G1 X46.231 Y124.750 E0.8984
G1 X46.061 Y123.674 E0.9582
G1 X45.567 Y122.703 E1.0181
G1 X44.797 Y121.933 E1.0780
G1 X43.826 Y121.439 E1.1379
G1 X42.750 Y121.269 E1.1978
G1 X42.750 Y120.783 F4200
G92 E0.0000
G1 X41.524 Y120.976 E0.0682 F315
G1 X40.418 Y121.540 E0.1365
G1 X39.540 Y122.418 E0.2047
G1 X38.977 Y123.523 E0.2730
G1 X38.782 Y124.750 E0.3412
G1 X38.977 Y125.977 E0.4095
G1 X39.540 Y127.082 E0.4778
G1 X40.418 Y127.960 E0.5460
G1 X41.523 Y128.523 E0.6142
G1 X42.750 Y128.718 E0.6825
G1 X43.977 Y128.523 E0.7508
G1 X45.082 Y127.960 E0.8190
G1 X45.960 Y127.082 E0.8872
G1 X46.524 Y125.976 E0.9555
G1 X46.717 Y124.750 E1.0237
G1 X46.524 Y123.524 E1.0920
G1 X45.960 Y122.418 E1.1602
G1 X45.082 Y121.540 E1.2285
G1 X43.976 Y120.976 E1.2967
G1 X42.750 Y120.783 E1.3650
; feature outer perimeter
G1 X97.755 Y118.500 F4200
G92 E0.0000
G1 X97.865 Y119.194 E0.0386 F210
G1 X98.183 Y119.820 E0.0772
G1 X98.680 Y120.317 E0.1159
G1 X99.277 Y120.621 E0.1527
G1 X99.998 Y120.746 E0.1929
G1 X100.694 Y120.635 E0.2317
G1 X101.320 Y120.317 E0.2703
G1 X101.817 Y119.820 E0.3089
G1 X102.135 Y119.194 E0.3475
G1 X102.246 Y118.500 E0.3862
G1 X102.135 Y117.806 E0.4248
G1 X101.817 Y117.180 E0.4634
G1 X101.320 Y116.683 E0.5020
G1 X100.694 Y116.365 E0.5406
G1 X100.000 Y116.255 E0.5793
G1 X99.306 Y116.365 E0.6179
G1 X98.680 Y116.683 E0.6565
G1 X98.183 Y117.180 E0.6951
G1 X97.865 Y117.806 E0.7337
G1 X97.755 Y118.500 E0.7724
; feature inner perimeter
G1 X97.269 Y118.500 F4200
G92 E0.0000
G1 X97.403 Y119.344 E0.0470 F315
G1 X97.790 Y120.105 E0.0939
G1 X98.395 Y120.710 E0.1409
G1 X99.124 Y121.081 E0.1859
G1 X99.995 Y121.233 E0.2345
G1 X100.845 Y121.097 E0.2819
G1 X101.605 Y120.710 E0.3288
G1 X102.210 Y120.105 E0.3758
G1 X102.597 Y119.345 E0.4227
G1 X102.732 Y118.500 E0.4697
G1 X102.597 Y117.655 E0.5168
G1 X102.210 Y116.895 E0.5637
G1 X101.605 Y116.290 E0.6107
G1 X100.844 Y115.903 E0.6577
G1 X100.000 Y115.769 E0.7047
G1 X99.156 Y115.903 E0.7516
G1 X98.395 Y116.290 E0.7986
G1 X97.790 Y116.895 E0.8456
G1 X97.403 Y117.656 E0.8926
G1 X97.269 Y118.500 E0.9396
G1 X96.783 Y118.500 F4200
G92 E0.0000
G1 X96.940 Y119.494 E0.0553 F315
G1 X97.397 Y120.391 E0.1107
G1 X98.109 Y121.103 E0.1660
G1 X98.970 Y121.541 E0.2192
G1 X99.991 Y121.720 E0.2762
G1 X100.995 Y121.559 E0.3320
G1 X101.891 Y121.103 E0.3873
G1 X102.603 Y120.391 E0.4427
G1 X103.059 Y119.495 E0.4979
G1 X103.218 Y118.500 E0.5533
G1 X103.059 Y117.505 E0.6087
G1 X102.603 Y116.609 E0.6640
G1 X101.891 Y115.897 E0.7194
G1 X100.994 Y115.440 E0.7747
G1 X100.000 Y115.283 E0.8300
G1 X99.006 Y115.440 E0.8854
G1 X98.109 Y115.897 E0.9407
G1 X97.397 Y116.609 E0.9961
G1 X96.940 Y117.506 E1.0514
G1 X96.783 Y118.500 E1.1067
G1 X96.297 Y118.500 F4200
G92 E0.0000
G1 X96.478 Y119.644 E0.0637 F315
G1 X97.004 Y120.677 E0.1274
G1 X97.823 Y121.496 E0.1911
G1 X98.817 Y122.002 E0.2524
G1 X99.988 Y122.206 E0.3178
G1 X101.145 Y122.021 E0.3822
G1 X102.177 Y121.496 E0.4458
G1 X102.996 Y120.677 E0.5096
G1 X103.521 Y119.645 E0.5732
G1 X103.704 Y118.500 E0.6369
G1 X103.521 Y117.355 E0.7007
G1 X102.996 Y116.324 E0.7643
G1 X102.176 Y115.504 E0.8281
G1 X101.144 Y114.978 E0.8918
G1 X100.000 Y114.797 E0.9554
G1 X98.856 Y114.978 E1.0191
G1 X97.824 Y115.504 E1.0828
G1 X97.004 Y116.324 E1.1466
G1 X96.478 Y117.356 E1.2102
G1 X96.297 Y118.500 E1.2739
; feature outer perimeter
G1 X100.000 Y83.745 F4200
G92 E0.0000
G1 X100.694 Y83.635 E0.0386 F210
G1 X101.320 Y83.317 E0.0772
G1 X101.817 Y82.820 E0.1159
G1 X102.135 Y82.194 E0.1545
G1 X102.246 Y81.500 E0.1931
G1 X102.135 Y80.806 E0.2318
G1 X101.817 Y80.180 E0.2704
G1 X101.320 Y79.683 E0.3090
G1 X100.694 Y79.365 E0.3476
G1 X100.000 Y79.254 E0.3862
