; G-Code generated by Simplify3D(R) Version 4.1.2
; Nov 15, 2022 at 10:19:25 PM
; Settings Summary
;   processName,Process1
;   applyToModels,Medio V1 final
;   profileName,PETG (modified)
;   profileVersion,2022-03-31 23:08:57
;   baseProfile,Default (modified)
;   printMaterial,PLA
;   printQuality,High
;   printExtruders,
;   extruderName,Primary Extruder
;   extruderToolheadNumber,0
;   extruderDiameter,0.4
;   extruderAutoWidth,1
;   extruderWidth,0.48
;   extrusionMultiplier,0.95
;   extruderUseRetract,1
;   extruderRetractionDistance,6.6
;   extruderExtraRestartDistance,0
;   extruderRetractionZLift,0
;   extruderRetractionSpeed,2700
;   extruderUseCoasting,0
;   extruderCoastingDistance,0.2
;   extruderUseWipe,0
;   extruderWipeDistance,5
;   primaryExtruder,0
;   layerHeight,0.29
;   topSolidLayers,4
;   bottomSolidLayers,4
;   perimeterOutlines,4
;   printPerimetersInsideOut,0
;   startPointOption,2
;   startPointOriginX,0
;   startPointOriginY,0
;   sequentialIslands,0
;   spiralVaseMode,0
;   firstLayerHeightPercentage,100
;   firstLayerWidthPercentage,100
;   firstLayerUnderspeed,0.2
;   useRaft,0
;   raftExtruder,0
;   raftTopLayers,3
;   raftBaseLayers,2
;   raftOffset,3
;   raftSeparationDistance,0.14
;   raftTopInfill,100
;   aboveRaftSpeedMultiplier,0.3
;   useSkirt,1
;   skirtExtruder,0
;   skirtLayers,2
;   skirtOutlines,2
;   skirtOffset,1
;   usePrimePillar,0
;   primePillarExtruder,999
;   primePillarWidth,12
;   primePillarLocation,7
;   primePillarSpeedMultiplier,1
;   useOozeShield,0
;   oozeShieldExtruder,999
;   oozeShieldOffset,2
;   oozeShieldOutlines,1
;   oozeShieldSidewallShape,1
;   oozeShieldSidewallAngle,30
;   oozeShieldSpeedMultiplier,1
;   infillExtruder,0
;   internalInfillPattern,Rectilinear
;   externalInfillPattern,Rectilinear
;   infillPercentage,30
;   outlineOverlapPercentage,70
;   infillExtrusionWidthPercentage,150
;   minInfillLength,5
;   infillLayerInterval,1
;   internalInfillAngles,0,60,-60
;   overlapInternalInfillAngles,0
;   externalInfillAngles,45,-45
;   generateSupport,0
;   supportExtruder,0
;   supportInfillPercentage,30
;   supportExtraInflation,0
;   supportBaseLayers,2
;   denseSupportExtruder,0
;   denseSupportLayers,0
;   denseSupportInfillPercentage,70
;   supportLayerInterval,1
;   supportHorizontalPartOffset,0.3
;   supportUpperSeparationLayers,1
;   supportLowerSeparationLayers,1
;   supportType,0
;   supportGridSpacing,4
;   maxOverhangAngle,45
;   supportAngles,0
;   temperatureName,Primary Extruder,Cama
;   temperatureNumber,0,0
;   temperatureSetpointCount,1,1
;   temperatureSetpointLayers,1,1
;   temperatureSetpointTemperatures,230,70
;   temperatureStabilizeAtStartup,1,1
;   temperatureHeatedBed,0,1
;   fanLayers,1
;   fanSpeeds,100
;   blipFanToFullPower,0
;   adjustSpeedForCooling,1
;   minSpeedLayerTime,15
;   minCoolingSpeedSlowdown,40
;   increaseFanForCooling,0
;   minFanLayerTime,45
;   maxCoolingFanSpeed,100
;   increaseFanForBridging,0
;   bridgingFanSpeed,100
;   use5D,1
;   relativeEdistances,0
;   allowEaxisZeroing,1
;   independentExtruderAxes,0
;   includeM10123,0
;   stickySupport,1
;   applyToolheadOffsets,0
;   gcodeXoffset,0
;   gcodeYoffset,0
;   gcodeZoffset,0
;   overrideMachineDefinition,0
;   machineTypeOverride,0
;   strokeXoverride,200
;   strokeYoverride,200
;   strokeZoverride,200
;   originOffsetXoverride,0
;   originOffsetYoverride,0
;   originOffsetZoverride,0
;   homeXdirOverride,-1
;   homeYdirOverride,-1
;   homeZdirOverride,-1
;   flipXoverride,1
;   flipYoverride,-1
;   flipZoverride,1
;   toolheadOffsets,0,0|0,0|0,0|0,0|0,0|0,0
;   overrideFirmwareConfiguration,0
;   firmwareTypeOverride,RepRap (Marlin/Repetier/Sprinter)
;   GPXconfigOverride,r2
;   baudRateOverride,115200
;   overridePrinterModels,0
;   printerModelsOverride
;   startingGcode,G28 ; home all axes,M117 Imprimiendo;
;   layerChangeGcode,
;   retractionGcode,
;   toolChangeGcode,
;   endingGcode,M106 S0 ;Turn-off fan,M104 S0 ;Turn-off hotend,M140 S0 ;Turn-off bed,M84 X Y E ;Disable all steppers but Z,M82 ;absolute extrusion mode,M104 S0;
;   exportFileFormat,gcode
;   celebration,0
;   celebrationSong,Random Song
;   postProcessing,
;   defaultSpeed,2100
;   outlineUnderspeed,0.5
;   solidInfillUnderspeed,0.8
;   supportUnderspeed,0.8
;   rapidXYspeed,4200
;   rapidZspeed,1002
;   minBridgingArea,50
;   bridgingExtraInflation,0
;   bridgingExtrusionMultiplier,1
;   bridgingSpeedMultiplier,1
;   useFixedBridgingAngle,0
;   fixedBridgingAngle,0
;   applyBridgingToPerimeters,0
;   filamentDiameters,1.75|1.75|1.75|1.75|1.75|1.75
;   filamentPricesPerKg,200|46|46|46|46|46
;   filamentDensities,1.25|1.25|1.25|1.25|1.25|1.25
;   useMinPrintHeight,0
;   minPrintHeight,0
;   useMaxPrintHeight,0
;   maxPrintHeight,0
;   useDiaphragm,0
;   diaphragmLayerInterval,20
;   robustSlicing,1
;   mergeAllIntoSolid,0
;   onlyRetractWhenCrossingOutline,1
;   retractBetweenLayers,0
;   useRetractionMinTravel,1
;   retractionMinTravel,3
;   retractWhileWiping,0
;   onlyWipeOutlines,0
;   avoidCrossingOutline,0
;   maxMovementDetourFactor,3
;   toolChangeRetractionDistance,12
;   toolChangeExtraRestartDistance,-0.5
;   toolChangeRetractionSpeed,600
;   externalThinWallType,0
;   internalThinWallType,2
;   thinWallAllowedOverlapPercentage,10
;   singleExtrusionMinLength,1
;   singleExtrusionMinPrintingWidthPercentage,50
;   singleExtrusionMaxPrintingWidthPercentage,200
;   singleExtrusionEndpointExtension,0.2
;   horizontalSizeCompensation,0
G90
M82
M106 S255
M140 S70
M190 S70
M104 S230 T0
M109 S230 T0
G28 ; home all axes
M117 Imprimiendo;
; process Process1
; layer 1, Z = 0.290
T0
G92 E0.0000
G1 E-6.6000 F2700
; feature skirt
; tool H0.290 W0.480
G1 Z0.290 F1002
G1 X34.288 Y67.780 F4200
G1 E0.0000 F2700
G92 E0.0000
G1 X165.712 Y67.780 E7.2256 F420
G1 X166.720 Y68.788 E7.3039
G1 X166.720 Y131.212 E10.7360
G1 X165.712 Y132.220 E10.8143
G1 X34.288 Y132.220 E18.0400
G1 X33.280 Y131.212 E18.1183
G1 X33.280 Y68.788 E21.5504
G1 X34.288 Y67.780 E21.6287
G1 X34.486 Y68.260 F4200
G92 E0.0000
G1 X165.514 Y68.260 E7.2037 F420
G1 X166.240 Y68.986 E7.2602
G1 X166.240 Y131.014 E10.6704
G1 X165.514 Y131.740 E10.7269
G1 X34.486 Y131.740 E17.9306
G1 X33.760 Y131.014 E17.9871
G1 X33.760 Y68.986 E21.3973
G1 X34.486 Y68.260 E21.4538
; feature outer perimeter
G1 X35.240 Y69.740 F4200
G92 E0.0000
G1 X164.760 Y69.740 E7.1209 F210
G1 X164.760 Y130.260 E10.4482
G1 X35.240 Y130.260 E17.5691
G1 X35.240 Y69.740 E20.8964
; feature inner perimeter
G1 X35.720 Y70.220 F4200
G92 E0.0000
G1 X164.280 Y70.220 E7.0681 F315
G1 X164.280 Y129.780 E10.3426
G1 X35.720 Y129.780 E17.4108
G1 X35.720 Y70.220 E20.6853
G1 X36.200 Y70.700 F4200
G92 E0.0000
G1 X163.800 Y70.700 E7.0153 F315
G1 X163.800 Y129.300 E10.2371
G1 X36.200 Y129.300 E17.2524
G1 X36.200 Y70.700 E20.4742
G1 X36.680 Y71.180 F4200
G92 E0.0000
G1 X40.319 Y71.180 E0.2001 F315
G1 X40.399 Y71.511 E0.2188
G1 X40.132 Y71.647 E0.2352
G1 X39.147 Y72.632 E0.3118
G1 X38.514 Y73.873 E0.3884
G1 X38.296 Y75.250 E0.4651
G1 X38.514 Y76.626 E0.5416
G1 X39.147 Y77.868 E0.6183
G1 X40.132 Y78.853 E0.6949
G1 X41.374 Y79.486 E0.7715
G1 X42.750 Y79.703 E0.8481
G1 X44.126 Y79.486 E0.9247
G1 X45.368 Y78.853 E1.0013
G1 X46.353 Y77.868 E1.0779
G1 X46.986 Y76.625 E1.1546
G1 X47.203 Y75.250 E1.2311
G1 X46.986 Y73.874 E1.3077
G1 X46.353 Y72.632 E1.3844
G1 X45.368 Y71.647 E1.4609
G1 X45.101 Y71.511 E1.4774
G1 X45.181 Y71.180 E1.4961
G1 X154.819 Y71.180 E7.5239
G1 X154.899 Y71.511 E7.5426
G1 X154.632 Y71.647 E7.5591
G1 X153.647 Y72.632 E7.6357
G1 X153.014 Y73.874 E7.7123
G1 X152.797 Y75.250 E7.7889
G1 X153.014 Y76.625 E7.8654
G1 X153.647 Y77.868 E7.9421
G1 X154.632 Y78.853 E8.0187
G1 X155.874 Y79.486 E8.0953
G1 X157.250 Y79.703 E8.1719
G1 X158.626 Y79.486 E8.2485
G1 X159.868 Y78.853 E8.3252
G1 X160.853 Y77.868 E8.4018
G1 X161.486 Y76.626 E8.4784
G1 X161.704 Y75.250 E8.5550
G1 X161.486 Y73.873 E8.6316
G1 X160.853 Y72.632 E8.7082
G1 X159.868 Y71.647 E8.7848
G1 X159.601 Y71.511 E8.8012
G1 X159.681 Y71.180 E8.8200
G1 X163.320 Y71.180 E9.0200
G1 X163.320 Y128.820 E12.1890
G1 X159.681 Y128.820 E12.3891
G1 X159.601 Y128.489 E12.4078
G1 X159.868 Y128.353 E12.4243
G1 X160.853 Y127.368 E12.5009
G1 X161.486 Y126.126 E12.5775
G1 X161.704 Y124.750 E12.6541
G1 X161.486 Y123.373 E12.7308
G1 X160.853 Y122.132 E12.8073
G1 X159.868 Y121.147 E12.8839
G1 X158.627 Y120.514 E12.9605
G1 X157.250 Y120.296 E13.0372
G1 X155.873 Y120.514 E13.1138
G1 X154.632 Y121.147 E13.1904
G1 X153.647 Y122.132 E13.2670
G1 X153.014 Y123.374 E13.3436
G1 X152.797 Y124.750 E13.4202
G1 X153.014 Y126.125 E13.4967
G1 X153.647 Y127.368 E13.5734
G1 X154.632 Y128.353 E13.6500
G1 X154.899 Y128.489 E13.6665
G1 X154.819 Y128.820 E13.6852
G1 X45.181 Y128.820 E19.7130
G1 X45.101 Y128.489 E19.7317
G1 X45.368 Y128.353 E19.7482
G1 X46.353 Y127.368 E19.8248
G1 X46.986 Y126.125 E19.9015
G1 X47.203 Y124.750 E19.9780
G1 X46.986 Y123.374 E20.0546
G1 X46.353 Y122.132 E20.1312
G1 X45.368 Y121.147 E20.2078
G1 X44.127 Y120.514 E20.2844
G1 X42.750 Y120.296 E20.3610
G1 X41.373 Y120.514 E20.4377
G1 X40.132 Y121.147 E20.5142
G1 X39.147 Y122.132 E20.5908
G1 X38.514 Y123.373 E20.6674
G1 X38.296 Y124.750 E20.7441
G1 X38.514 Y126.126 E20.8206
G1 X39.147 Y127.368 E20.8973
G1 X40.132 Y128.353 E20.9739
G1 X40.399 Y128.489 E20.9903
G1 X40.319 Y128.820 E21.0091
G1 X36.680 Y128.820 E21.2091
G1 X36.680 Y71.180 E24.3781
; feature outer perimeter
G1 X40.326 Y73.489 F4200
G92 E0.0000
G1 X39.901 Y74.324 E0.0515 F210
G1 X39.754 Y75.250 E0.1031
G1 X39.901 Y76.175 E0.1546
G1 X40.326 Y77.011 E0.2061
G1 X40.989 Y77.674 E0.2577
G1 X41.824 Y78.099 E0.3092
G1 X42.750 Y78.245 E0.3607
G1 X43.676 Y78.099 E0.4122
G1 X44.511 Y77.674 E0.4638
G1 X45.174 Y77.011 E0.5153
G1 X45.599 Y76.175 E0.5669
G1 X45.745 Y75.250 E0.6183
G1 X45.599 Y74.324 E0.6699
G1 X45.174 Y73.489 E0.7214
G1 X44.511 Y72.826 E0.7729
G1 X43.676 Y72.401 E0.8244
G1 X42.750 Y72.254 E0.8760
G1 X41.824 Y72.401 E0.9276
G1 X40.989 Y72.826 E0.9791
G1 X40.326 Y73.489 E1.0306
; feature inner perimeter
G1 X39.933 Y73.203 F4200
G92 E0.0000
G1 X39.439 Y74.174 E0.0599 F315
G1 X39.268 Y75.250 E0.1198
G1 X39.439 Y76.325 E0.1796
G1 X39.933 Y77.296 E0.2396
G1 X40.703 Y78.067 E0.2995
G1 X41.674 Y78.561 E0.3593
G1 X42.750 Y78.731 E0.4192
G1 X43.826 Y78.561 E0.4791
G1 X44.797 Y78.067 E0.5390
G1 X45.567 Y77.296 E0.5989
G1 X46.061 Y76.325 E0.6588
G1 X46.231 Y75.250 E0.7187
G1 X46.061 Y74.174 E0.7785
G1 X45.567 Y73.203 E0.8384
G1 X44.797 Y72.433 E0.8983
G1 X43.826 Y71.939 E0.9582
G1 X42.750 Y71.768 E1.0181
G1 X41.674 Y71.939 E1.0780
G1 X40.703 Y72.433 E1.1379
G1 X39.933 Y73.203 E1.1978
G1 X39.540 Y72.918 F4200
G92 E0.0000
G1 X38.977 Y74.023 E0.0682 F315
G1 X38.782 Y75.250 E0.1365
G1 X38.977 Y76.475 E0.2047
G1 X39.540 Y77.582 E0.2730
G1 X40.418 Y78.460 E0.3412
G1 X41.524 Y79.024 E0.4095
G1 X42.750 Y79.217 E0.4777
G1 X43.976 Y79.024 E0.5460
G1 X45.082 Y78.460 E0.6142
G1 X45.960 Y77.582 E0.6825
G1 X46.524 Y76.475 E0.7508
G1 X46.717 Y75.250 E0.8190
G1 X46.524 Y74.024 E0.8872
G1 X45.960 Y72.918 E0.9555
G1 X45.082 Y72.040 E1.0237
G1 X43.977 Y71.477 E1.0919
G1 X42.750 Y71.282 E1.1602
G1 X41.523 Y71.477 E1.2285
G1 X40.418 Y72.040 E1.2967
G1 X39.540 Y72.918 E1.3650
; feature outer perimeter
G1 X42.750 Y121.754 F4200
G92 E0.0000
G1 X41.824 Y121.901 E0.0516 F210
G1 X40.989 Y122.326 E0.1031
G1 X40.326 Y122.989 E0.1546
G1 X39.901 Y123.824 E0.2061
G1 X39.754 Y124.750 E0.2577
G1 X39.901 Y125.675 E0.3092
G1 X40.326 Y126.511 E0.3607
G1 X40.989 Y127.174 E0.4122
G1 X41.824 Y127.599 E0.4638
G1 X42.750 Y127.745 E0.5153
G1 X43.676 Y127.599 E0.5668
G1 X44.511 Y127.174 E0.6184
G1 X45.174 Y126.511 E0.6699
G1 X45.599 Y125.675 E0.7215
G1 X45.745 Y124.750 E0.7729
G1 X45.599 Y123.824 E0.8245
G1 X45.174 Y122.989 E0.8760
G1 X44.511 Y122.326 E0.9275
G1 X43.676 Y121.901 E0.9790
G1 X42.750 Y121.754 E1.0306
; feature inner perimeter
G1 X42.750 Y121.268 F4200
G92 E0.0000
G1 X41.674 Y121.439 E0.0599 F315
G1 X40.703 Y121.933 E0.1198
G1 X39.933 Y122.703 E0.1797
G1 X39.439 Y123.674 E0.2395
G1 X39.268 Y124.750 E0.2995
G1 X39.439 Y125.825 E0.3593
G1 X39.933 Y126.796 E0.4192
G1 X40.703 Y127.567 E0.4791
G1 X41.674 Y128.061 E0.5390
G1 X42.750 Y128.231 E0.5989
G1 X43.826 Y128.061 E0.6588
G1 X44.797 Y127.567 E0.7187
G1 X45.567 Y126.796 E0.7786
G1 X46.061 Y125.825 E0.8385
G1 X46.231 Y124.750 E0.8983
G1 X46.061 Y123.674 E0.9582
G1 X45.567 Y122.703 E1.0181
G1 X44.797 Y121.933 E1.0780
G1 X43.826 Y121.439 E1.1379
G1 X42.750 Y121.268 E1.1978
G1 X42.750 Y120.782 F4200
G92 E0.0000
G1 X41.523 Y120.977 E0.0683 F315
G1 X40.418 Y121.540 E0.1365
G1 X39.540 Y122.418 E0.2047
G1 X38.977 Y123.523 E0.2730
G1 X38.782 Y124.750 E0.3413
G1 X38.977 Y125.975 E0.4095
G1 X39.540 Y127.082 E0.4777
G1 X40.418 Y127.960 E0.5460
G1 X41.524 Y128.524 E0.6143
G1 X42.750 Y128.717 E0.6825
G1 X43.976 Y128.524 E0.7507
G1 X45.082 Y127.960 E0.8190
G1 X45.960 Y127.082 E0.8872
G1 X46.524 Y125.975 E0.9555
G1 X46.717 Y124.750 E1.0237
G1 X46.524 Y123.524 E1.0920
G1 X45.960 Y122.418 E1.1602
G1 X45.082 Y121.540 E1.2285
G1 X43.977 Y120.977 E1.2967
G1 X42.750 Y120.782 E1.3650
; feature outer perimeter
G1 X154.255 Y124.750 F4200
G92 E0.0000
G1 X154.401 Y125.675 E0.0515 F210
G1 X154.826 Y126.511 E0.1030
G1 X155.489 Y127.174 E0.1546
G1 X156.324 Y127.599 E0.2061
G1 X157.250 Y127.745 E0.2576
G1 X158.176 Y127.599 E0.3092
G1 X159.011 Y127.174 E0.3607
G1 X159.674 Y126.511 E0.4122
G1 X160.099 Y125.675 E0.4638
G1 X160.246 Y124.750 E0.5153
G1 X160.099 Y123.824 E0.5668
G1 X159.674 Y122.989 E0.6183
G1 X159.011 Y122.326 E0.6699
G1 X158.176 Y121.901 E0.7214
G1 X157.250 Y121.754 E0.7729
G1 X156.324 Y121.901 E0.8245
G1 X155.489 Y122.326 E0.8760
G1 X154.826 Y122.989 E0.9275
G1 X154.401 Y123.824 E0.9790
G1 X154.255 Y124.750 E1.0306
; feature inner perimeter
G1 X153.769 Y124.750 F4200
G92 E0.0000
G1 X153.939 Y125.825 E0.0598 F315
G1 X154.433 Y126.796 E0.1198
G1 X155.203 Y127.567 E0.1797
G1 X156.174 Y128.061 E0.2395
G1 X157.250 Y128.231 E0.2994
G1 X158.326 Y128.061 E0.3593
G1 X159.297 Y127.567 E0.4192
G1 X160.067 Y126.796 E0.4791
G1 X160.561 Y125.825 E0.5390
G1 X160.732 Y124.750 E0.5989
G1 X160.561 Y123.674 E0.6588
G1 X160.067 Y122.703 E0.7187
G1 X159.297 Y121.933 E0.7785
G1 X158.326 Y121.439 E0.8384
G1 X157.250 Y121.268 E0.8983
G1 X156.174 Y121.439 E0.9582
G1 X155.203 Y121.933 E1.0181
G1 X154.433 Y122.703 E1.0780
G1 X153.939 Y123.674 E1.1379
G1 X153.769 Y124.750 E1.1978
G1 X153.283 Y124.750 F4200
G92 E0.0000
G1 X153.476 Y125.975 E0.0682 F315
G1 X154.040 Y127.082 E0.1365
G1 X154.918 Y127.960 E0.2047
G1 X156.024 Y128.524 E0.2730
G1 X157.250 Y128.717 E0.3412
G1 X158.476 Y128.524 E0.4095
G1 X159.582 Y127.960 E0.4777
G1 X160.460 Y127.082 E0.5460
G1 X161.023 Y125.975 E0.6142
G1 X161.218 Y124.750 E0.6825
G1 X161.023 Y123.523 E0.7507
G1 X160.460 Y122.418 E0.8190
G1 X159.582 Y121.540 E0.8872
G1 X158.477 Y120.977 E0.9554
G1 X157.250 Y120.782 E1.0237
G1 X156.023 Y120.977 E1.0920
G1 X154.918 Y121.540 E1.1602
G1 X154.040 Y122.418 E1.2285
G1 X153.476 Y123.524 E1.2967
G1 X153.283 Y124.750 E1.3650
; feature outer perimeter
G1 X157.250 Y78.245 F4200
G92 E0.0000
G1 X158.176 Y78.099 E0.0515 F210
G1 X159.011 Y77.674 E0.1031
G1 X159.674 Y77.011 E0.1546
G1 X160.099 Y76.175 E0.2061
G1 X160.246 Y75.250 E0.2576
G1 X160.099 Y74.324 E0.3092
G1 X159.674 Y73.489 E0.3607
G1 X159.011 Y72.826 E0.4122
G1 X158.176 Y72.401 E0.4637
G1 X157.250 Y72.254 E0.5153
G1 X156.324 Y72.401 E0.5669
G1 X155.489 Y72.826 E0.6184
G1 X154.826 Y73.489 E0.6699
G1 X154.401 Y74.324 E0.7214
G1 X154.255 Y75.250 E0.7730
G1 X154.401 Y76.175 E0.8244
G1 X154.826 Y77.011 E0.8760
G1 X155.489 Y77.674 E0.9275
G1 X156.324 Y78.099 E0.9790
G1 X157.250 Y78.245 E1.0306
; feature inner perimeter
G1 X157.250 Y78.731 F4200
G92 E0.0000
G1 X158.326 Y78.561 E0.0599 F315
G1 X159.297 Y78.067 E0.1198
G1 X160.067 Y77.296 E0.1797
G1 X160.561 Y76.325 E0.2396
G1 X160.732 Y75.250 E0.2994
G1 X160.561 Y74.174 E0.3594
G1 X160.067 Y73.203 E0.4192
G1 X159.297 Y72.433 E0.4791
G1 X158.326 Y71.939 E0.5390
G1 X157.250 Y71.768 E0.5989
G1 X156.174 Y71.939 E0.6588
G1 X155.203 Y72.433 E0.7187
G1 X154.433 Y73.203 E0.7786
